!!!COM: Victor Masse/
!!!CNT: Francais
!!!TXO: Francais
!!!OTL: L'Oiseau Bleu (Conte de fe/e)
!!!LYR: Edouard Laroulave
!!!ONM: No. 8
!!!ENC: Jacob Pegg
!!!YOR: Romantic French Song 1830-1870 -David Tunley, ed.,
!!!YOR: New York: Garland Publishing, Inc., 1995, Vol. 4
!!!ODT: 1874/
!!NB: Vocal melody and text only encoded.
!!NB: First instance of melodic material only encoded.
**kern	**silbe
*clef G2	*
*k[f#]	*
*M6/8	*
=37	=37
4r	.
8r	.
4r	.
{8b	{Du
=38	=38
4.g	fond
4e	des
8e	grands
=39	=39
[4.g	bois
8g]}	|}
8r	.
{8b	{M'ar-
=40	=40
4.g	-rive
4e	u-
8e	-ne
=41	=41
4.g	voix
4.b	qui
=42	=42
4.ee	pleure
4cc	et
8ee	qui
=43	=43
4dd	chan-
8a	|
(8cc	|
16ddq	|
16ccq	|
8b)	|
8a	|
=44	=44
[4.b	-te:
4b]}	|}
8r	.
=45	=45
{4a	{C'est
8b	mon
4cc	bien
8b	ai-
=46	=46
[4.a	-me/
4a]}	|}
8r	.
=47	=47
{4cc	{Que
8dd	tient
4ee	ren-
8dd	-fer-
=48	=48
[4.cc	-me
4cc]}	|}
8r	.
=49	=49
{4b	{U-
8ee	-ne
4cc	main
8a	me/-
=50	=50
4b	-chan-
8e	|
(8a	|
16bq	|
16aq	|
8g)	|
8f#	|
=51	=51
[4.g	-te.
4g]}	|}
8r	.
=52	=52
{4g	{U-
8e	-ne
4ff#	main
8ee	me/-
=53	=53
4dd	-chan-
8a	|
(8ee	|
16ff#q	|
16eeq	|
8dd)	|
8cc#	|
=54	=54
2.dd}	-te}
=55	=55
*M2/4	*
{8b	{Oi-
8b	-seau
8.dd	bleu,
16dd	cou-
=56	=56
8b	-leur
8b	de
4dd	temps
=57	=57
(16f#	Vo-
16g	|
16a	-le
16b	|
16cc	vo-
16b	-le
16a	a\
16b	|
=58	=58
16cc	ti-
16dd	|
16ee	-re
16ff#)	|
(16eeq	d'ai-
16ff#q	|
8ee	|
8dd)	-le
=59	=59
8b	Oi-
8b	-seau
8.ee	bleu,
16ee	cou-
=60	=60
8b	-leur
8b	du
[4ee	temps
=61	=61
4ee_	|
8ee]}	|}
8r	.
=62	=62
{8dd#	{Va
16cc#	me
16b	cher-
8cc#	-cher
16dd#	mon
16ee	fi-
=63	=63
8dd#	-de\-
16cc#	|
16b	|
8cc#	|
16dd#	|
16ee	|
=64	=64
[2dd#	-le;
=65	=65
4dd#_	|
8dd#]}	|}
8r	.
=66	=66
{8.ee	{Je
16ddn	l'at-
[4ccn	-tends
=67	=67
4ccn]}	|}
4r	.
=68	=68
{8.ff#	{je
16ee	l'at-
[4dd	-tends
=69	=69
4dd]}	|}
4r	.
=70	=70
{[2gg	{ah!
=71	=71
(8gg;]	|
8dd#)	|
16ee	je
16a	|
16b	l'at-
16cc	|
=72	=72
[2dd	-tends!
=73	=73
2dd_	|
=74	=74
8dd]}	|}
8r	.
4r	.
!!two verses follow with sporadic variations.
*-	*-
